X:1
T:[ID 1-82]
T:[ID 1-82]
T:Bezeichnung standardisiert: Polonaise Polonaise In dieser Quelle auch als: Polon\"aise In dieser Quelle auch als: Poloniose In dieser Quelle auch als: Menuet In dieser Quelle auch als: Polonoise In dieser Quelle auch als: Tantz
T:Urheber unbekannt Datum in der hier transkribierten schriftlichen Quelle: 1767
C:Urheber unbekannt
C:Datum in der hier transkribierten schriftlichen Quelle: 1767
L:1/8
M:3/4
K:D
V:1 treble 
V:1
 a/b/c'/c/ FFFF | c/d/e/c/ CCCC | CAAcce | ed/c/ d4 :: df/d/ F2 A2 | G/B/c/A/ F/G/A/F/ B,2 | %6
 eg/e/ c2 B2 | A/B/c/A/ ^G/A/B/G/ C2 | CAAcce | FFFddf | CAAcce | A/G/F/E/ F4 :| %12

